X: 39537
T: Taylor Bar, 4am
R: jig
M: 6/8
K: Adorian
DEG|:A3 ABd|B3 AGE|G3GAG|GED DE/F/G|
A3 ABd|.B/.c/dB AGE|GBA GAB|1 ced BAG:|2 ced ABd||
|:e3 eaf|g3 gae|deB dge|dBG AB/c/d|
e3 eaf|g3 gae|dge dBA|BGE GB/c/d|
e3 eaf|g3 gae|deB dge|dBG AB/c/d|
e2d eaf|gab age|dge dBA|BGE DEG||

